bots/cmping/seasonal/trans.svg

<svg width="2048" height="2048" fill="none" xmlns="http://www.w3.org/2000/svg"><path fill="url(#a)" d="M0 0h2048v2048H0z"/><path d="M705.634 645H536.491A847.02 847.02 0 0 1 1024 490.636a847.054 847.054 0 0 1 301.44 55.453l-42.96 74.406A762.321 762.321 0 0 0 705.634 645ZM1098.2 645H949.804a696.562 696.562 0 0 1 148.396 0ZM1511.51 645h-134.85l110.28-191 68.53 39.567-75.29 130.41A847.92 847.92 0 0 1 1511.51 645Z" fill="#6576CC"/><path d="M1266.39 836h240.94a696.657 696.657 0 0 0-102.44-81.61l32.89-56.978a762.166 762.166 0 0 1 125.25 101.196A767.043 767.043 0 0 1 1597.99 836h108.48a846.438 846.438 0 0 0-83.55-97.284A847.218 847.218 0 0 0 1511.51 645h-134.85l-110.27 191ZM949.804 645H1098.2a696.645 696.645 0 0 1 150.85 33.393L1158.06 836H540.667a696.6 696.6 0 0 1 409.137-191ZM536.491 645h169.143a762.286 762.286 0 0 0-255.622 191H341.526a846.958 846.958 0 0 1 194.965-191Z" fill="#D46899"/><path d="M1156.12 1027h491.38a696.688 696.688 0 0 0-130.93-181.934 658.323 658.323 0 0 0-9.24-9.066h-240.94l-110.27 191ZM540.667 836h617.393l-90.14 156.117A348.273 348.273 0 0 0 866.463 1027H400.498a696.607 696.607 0 0 1 140.169-191ZM341.526 836h108.485a762.315 762.315 0 0 0-122.148 191h-91.844a847.03 847.03 0 0 1 105.507-191ZM1706.47 836h-108.48a762.322 762.322 0 0 1 122.15 191h91.84c-1.78-4.51-3.6-9.01-5.45-13.5A847.242 847.242 0 0 0 1706.47 836Z" fill="#fff"/><path d="M1046.42 1217h91.38l92.41-160.06a346.621 346.621 0 0 1 40.07 34.41c32.35 32.34 58 70.74 75.51 113 1.73 4.19 3.38 8.4 4.95 12.65h359.33c-8.78-49.93-23-98.88-42.5-145.94a691.349 691.349 0 0 0-20.07-44.06h-491.38l-109.7 190ZM400.498 1027h465.965a348.258 348.258 0 0 0-164.249 177.35c-1.735 4.19-3.387 8.4-4.955 12.65H337.927a696.594 696.594 0 0 1 62.571-190ZM236.019 1027h91.844a744.611 744.611 0 0 0-8.136 18.92A762.164 762.164 0 0 0 271.306 1217h-85.671a846.861 846.861 0 0 1 50.384-190ZM1811.98 1027h-91.84c2.79 6.26 5.5 12.57 8.13 18.92a762.266 762.266 0 0 1 48.42 171.08h85.67a846.266 846.266 0 0 0-50.38-190Z" fill="#D46899"/><path d="M1088.33 1302.68c4.28 9.43 6.67 19.92 6.67 30.96 0 41.42-33.58 75-75 75-41.421 0-75-33.58-75-75 0-41.43 33.579-75 75-75 .79 0 1.58.01 2.36.03l24.06-41.67h91.38l-49.47 85.68ZM1350.74 1217a348.247 348.247 0 0 1 21.56 120.64h348.3c0-40.54-3.54-80.9-10.53-120.64h-359.33ZM1776.69 1217c6.38 39.8 9.61 80.14 9.61 120.64h84.7c0-40.46-2.9-80.77-8.63-120.64h-85.68ZM697.26 1217a348.316 348.316 0 0 0-21.559 120.64H327.402c0-40.54 3.538-80.9 10.525-120.64H697.26ZM271.306 1217a762.312 762.312 0 0 0-9.606 120.64H177c0-40.46 2.898-80.77 8.635-120.64h85.671Z" fill="#6476CC"/><defs><linearGradient id="a" x1="2048" y1="0" x2="0" y2="2048" gradientUnits="userSpaceOnUse"><stop stop-color="#71E6C5"/><stop offset="1" stop-color="#68D49E"/></linearGradient></defs></svg>

<svg width="2048" height="2048" viewBox="0 0 2048 2048" fill="none" xmlns="http://www.w3.org/2000/svg">
<rect width="2048" height="2048" fill="url(#paint0_linear_31047838)"/>
<path d="M705.634 645H536.491C587.355 609.2 642.129 579.026 699.867 555.11C802.63 512.544 912.771 490.636 1024 490.636C1127.08 490.636 1229.23 509.452 1325.44 546.089L1282.48 620.495C1199.66 590.645 1112.21 575.336 1024 575.336C923.894 575.336 824.767 595.053 732.281 633.362C723.318 637.075 714.434 640.955 705.634 645Z" fill="#6576CC"/>
<path d="M1098.2 645H949.804C974.401 642.365 999.168 641.037 1024 641.037C1048.83 641.037 1073.6 642.365 1098.2 645Z" fill="#6576CC"/>
<path d="M1511.51 645H1376.66L1486.94 454L1555.47 493.567L1480.18 623.977C1490.78 630.751 1501.22 637.76 1511.51 645Z" fill="#6576CC"/>
<path d="M1266.39 836H1507.33C1475.76 805.58 1441.45 778.268 1404.89 754.39L1437.78 697.412C1482.88 726.558 1524.88 760.458 1563.03 798.608C1575.11 810.694 1586.77 823.166 1597.99 836H1706.47C1681.18 801.586 1653.26 769.056 1622.92 738.716C1588.46 704.256 1551.17 672.917 1511.51 645H1376.66L1266.39 836Z" fill="#D46899"/>
<path d="M949.804 645H1098.2C1149.53 650.499 1200.13 661.693 1249.05 678.393L1158.06 836H540.667C603.38 775.576 676.896 727.418 757.424 694.063C818.997 668.558 883.79 652.072 949.804 645Z" fill="#D46899"/>
<path d="M536.491 645H705.634C623.63 682.692 548.899 734.682 484.973 798.608C472.887 810.694 461.228 823.166 450.012 836H341.526C366.822 801.586 394.742 769.056 425.081 738.716C459.541 704.256 496.827 672.917 536.491 645Z" fill="#D46899"/>
<path d="M1156.12 1027H1647.5C1614.01 959.78 1569.82 898.32 1516.57 845.066C1513.52 842.014 1510.44 838.992 1507.33 836H1266.39L1156.12 1027Z" fill="white"/>
<path d="M540.667 836H1158.06L1067.92 992.117C1053.38 990.269 1038.72 989.336 1024 989.336C978.261 989.336 932.969 998.345 890.712 1015.85C882.477 1019.26 874.388 1022.98 866.463 1027H400.498C433.988 959.78 478.177 898.32 531.431 845.066C534.483 842.014 537.562 838.992 540.667 836Z" fill="white"/>
<path d="M341.526 836H450.011C400.04 893.179 358.854 957.549 327.863 1027H236.019C237.798 1022.49 239.616 1017.99 241.474 1013.5C267.62 950.38 301.246 890.801 341.526 836Z" fill="white"/>
<path d="M1706.47 836H1597.99C1647.96 893.179 1689.15 957.549 1720.14 1027H1811.98C1810.2 1022.49 1808.38 1017.99 1806.53 1013.5C1780.38 950.38 1746.75 890.801 1706.47 836Z" fill="white"/>
<path d="M1046.42 1217H1137.8L1230.21 1056.94C1244.39 1067.35 1257.79 1078.85 1270.28 1091.35C1302.63 1123.69 1328.28 1162.09 1345.79 1204.35C1347.52 1208.54 1349.17 1212.75 1350.74 1217H1710.07C1701.29 1167.07 1687.07 1118.12 1667.57 1071.06C1661.39 1056.12 1654.69 1041.43 1647.5 1027H1156.12L1046.42 1217Z" fill="#D46899"/>
<path d="M400.498 1027H866.463C833.719 1043.61 803.755 1065.31 777.715 1091.35C745.373 1123.69 719.717 1162.09 702.214 1204.35C700.479 1208.54 698.827 1212.75 697.259 1217H337.927C346.707 1167.07 360.933 1118.12 380.427 1071.06C386.614 1056.12 393.309 1041.43 400.498 1027Z" fill="#D46899"/>
<path d="M236.019 1027H327.863C325.067 1033.26 322.355 1039.57 319.727 1045.92C296.915 1100.99 280.696 1158.41 271.306 1217H185.635C194.982 1152.04 211.863 1088.27 236.019 1027Z" fill="#D46899"/>
<path d="M1811.98 1027H1720.14C1722.93 1033.26 1725.64 1039.57 1728.27 1045.92C1751.08 1100.99 1767.3 1158.41 1776.69 1217H1862.36C1853.02 1152.04 1836.14 1088.27 1811.98 1027Z" fill="#D46899"/>
<path d="M1088.33 1302.68C1092.61 1312.11 1095 1322.6 1095 1333.64C1095 1375.06 1061.42 1408.64 1020 1408.64C978.579 1408.64 945 1375.06 945 1333.64C945 1292.21 978.579 1258.64 1020 1258.64C1020.79 1258.64 1021.58 1258.65 1022.36 1258.67L1046.42 1217H1137.8L1088.33 1302.68Z" fill="#6476CC"/>
<path d="M1350.74 1217C1364.99 1255.59 1372.3 1296.43 1372.3 1337.64H1720.6C1720.6 1297.1 1717.06 1256.74 1710.07 1217H1350.74Z" fill="#6476CC"/>
<path d="M1776.69 1217C1783.07 1256.8 1786.3 1297.14 1786.3 1337.64H1871C1871 1297.18 1868.1 1256.87 1862.37 1217H1776.69Z" fill="#6476CC"/>
<path d="M697.26 1217C683.013 1255.59 675.701 1296.43 675.701 1337.64H327.402C327.402 1297.1 330.94 1256.74 337.927 1217H697.26Z" fill="#6476CC"/>
<path d="M271.306 1217C264.927 1256.8 261.7 1297.14 261.7 1337.64H177C177 1297.18 179.898 1256.87 185.635 1217H271.306Z" fill="#6476CC"/>
<defs>
<linearGradient id="paint0_linear_31047838" x1="2048" y1="0" x2="0" y2="2048" gradientUnits="userSpaceOnUse">
<stop stop-color="#71E6C5"/>
<stop offset="1" stop-color="#68D49E"/>
</linearGradient>
</defs>
</svg>
